src/assets/icons/svg/close.svg

<svg width="24" height="24" viewBox="0 0 24 24" fill="none" xmlns="http://www.w3.org/2000/svg">
<path d="M16.741 8.49097L13.3024 11.9297L16.741 15.3684C17.1072 15.7344 17.1072 16.3281 16.741 16.6941C16.558 16.8772 16.318 16.9688 16.0781 16.9688C15.8383 16.9688 15.5982 16.8772 15.4153 16.6941L11.9766 13.2556L8.53784 16.6941C8.35492 16.8772 8.11487 16.9688 7.875 16.9688C7.63513 16.9688 7.39508 16.8772 7.21216 16.6941C6.84595 16.3281 6.84595 15.7344 7.21216 15.3684L10.6507 11.9297L7.21216 8.49097C6.84595 8.12494 6.84595 7.53131 7.21216 7.16528C7.57819 6.79907 8.17181 6.79907 8.53784 7.16528L11.9766 10.6038L15.4153 7.16528C15.7813 6.79907 16.3749 6.79907 16.741 7.16528C17.1072 7.53131 17.1072 8.12494 16.741 8.49097ZM20.4853 3.51471C18.2188 1.24823 15.2053 0 12 0C8.79474 0 5.78119 1.24823 3.51471 3.51471C1.24823 5.78119 0 8.79474 0 12C0 15.2053 1.24823 18.2188 3.51471 20.4853C5.78119 22.7518 8.79474 24 12 24C14.1943 24 16.3414 23.402 18.2091 22.2706C18.652 22.0023 18.7936 21.4259 18.5253 20.9832C18.2571 20.5402 17.6805 20.3987 17.2377 20.6669C15.663 21.6207 13.8517 22.125 12 22.125C6.41711 22.125 1.875 17.5829 1.875 12C1.875 6.41711 6.41711 1.875 12 1.875C17.5829 1.875 22.125 6.41711 22.125 12C22.125 13.9964 21.5314 15.9395 20.4082 17.6197C20.1204 18.05 20.2361 18.6323 20.6666 18.9201C21.0969 19.2078 21.6791 19.0922 21.967 18.6617C23.2969 16.6723 24 14.3687 24 12C24 8.79474 22.7518 5.78119 20.4853 3.51471Z" fill="black"/>
</svg>

<?xml version="1.0" encoding="iso-8859-1"?>
<!-- Generator: Adobe Illustrator 23.1.0, SVG Export Plug-In . SVG Version: 6.00 Build 0)  -->
<svg version="1.1" id="&#x421;&#x43B;&#x43E;&#x439;_1"
	 xmlns="http://www.w3.org/2000/svg" xmlns:xlink="http://www.w3.org/1999/xlink" x="0px" y="0px" viewBox="0 0 24 24"
	 style="enable-background:new 0 0 24 24;" xml:space="preserve">
<path d="M16.741,8.491l-3.439,3.439l3.439,3.439c0.366,0.366,0.366,0.96,0,1.326c-0.183,0.183-0.423,0.275-0.663,0.275
	c-0.24,0-0.48-0.092-0.663-0.275l-3.439-3.438l-3.439,3.438c-0.183,0.183-0.423,0.275-0.663,0.275s-0.48-0.092-0.663-0.275
	c-0.366-0.366-0.366-0.96,0-1.326l3.439-3.439L7.212,8.491c-0.366-0.366-0.366-0.96,0-1.326c0.366-0.366,0.96-0.366,1.326,0
	l3.439,3.439l3.439-3.439c0.366-0.366,0.96-0.366,1.326,0C17.107,7.531,17.107,8.125,16.741,8.491z M20.485,3.515
	C18.219,1.248,15.205,0,12,0C8.795,0,5.781,1.248,3.515,3.515S0,8.795,0,12c0,3.205,1.248,6.219,3.515,8.485S8.795,24,12,24
	c2.194,0,4.341-0.598,6.209-1.729c0.443-0.268,0.584-0.845,0.316-1.287c-0.268-0.443-0.845-0.584-1.288-0.316
	c-1.575,0.954-3.386,1.458-5.238,1.458C6.417,22.125,1.875,17.583,1.875,12C1.875,6.417,6.417,1.875,12,1.875
	c5.583,0,10.125,4.542,10.125,10.125c0,1.996-0.594,3.939-1.717,5.62c-0.288,0.43-0.172,1.013,0.258,1.3
	c0.43,0.288,1.013,0.172,1.3-0.258C23.297,16.672,24,14.369,24,12C24,8.795,22.752,5.781,20.485,3.515z"/>
</svg>
